icons/op-ticket-note-24.svg

<svg width="24" height="24" viewBox="0 0 24 24" fill="none" xmlns="http://www.w3.org/2000/svg">
<path d="M6.46364 5.4375H13.1455L16.4864 8.71875L17.5364 7.71875L13.75 4H5V20H9.04091V18.5625H6.46364V5.4375ZM15.4682 10.3438H13.1455C11.2045 10.3438 9.64545 11.875 9.64545 13.7812C9.64545 15.4688 10.9182 16.9062 12.5727 17.1875V19.5312L15.6909 17.2188C17.5364 17.125 19 15.5938 19 13.7812C19 11.875 17.4091 10.3438 15.4682 10.3438ZM15.4682 16.0625H15.2773L13.7182 17.2188V16.0625H13.1455C11.8409 16.0625 10.8227 15.0312 10.8227 13.7812C10.8227 12.5 11.8409 11.4688 13.1455 11.4688H15.4682C16.7727 11.4688 17.8227 12.5 17.8227 13.7812C17.8227 15.0312 16.7727 16.0625 15.4682 16.0625Z" fill="black"/>
</svg>

<svg xmlns="http://www.w3.org/2000/svg" width="24" height="24" viewBox="0 0 24 24"><path d="M6.464 5.438h6.682l3.34 3.281 1.05-1L13.75 4H5v16h4.041v-1.438H6.464V5.438Zm9.004 4.906h-2.322c-1.942 0-3.501 1.531-3.501 3.437 0 1.688 1.273 3.125 2.928 3.407v2.343l3.118-2.312C17.536 17.125 19 15.594 19 13.781c0-1.906-1.591-3.437-3.532-3.437Zm0 5.718h-.191l-1.559 1.157v-1.157h-.572c-1.305 0-2.323-1.031-2.323-2.281a2.301 2.301 0 0 1 2.323-2.312h2.322c1.305 0 2.355 1.031 2.355 2.312 0 1.25-1.05 2.281-2.355 2.281Z"/></svg>
